resources/svg/loop-o.svg

<svg xmlns="http://www.w3.org/2000/svg" viewBox="0 0 15 15" fill="none"><path d="M14.5 3.5L14.8536 3.85355C15.0488 3.65829 15.0488 3.34171 14.8536 3.14645L14.5 3.5ZM0.5 11.5L0.146447 11.1464C-0.0488153 11.3417 -0.0488153 11.6583 0.146447 11.8536L0.5 11.5ZM11.1464 0.853553L14.1464 3.85355L14.8536 3.14645L11.8536 0.146447L11.1464 0.853553ZM14.1464 3.14645L11.1464 6.14645L11.8536 6.85355L14.8536 3.85355L14.1464 3.14645ZM3.85355 14.1464L0.853554 11.1464L0.146447 11.8536L3.14644 14.8536L3.85355 14.1464ZM0.853554 11.8536L3.85355 8.85355L3.14645 8.14645L0.146447 11.1464L0.853554 11.8536ZM0.5 12H11.5V11H0.5V12ZM15 8.5V7H14V8.5H15ZM11.5 12C13.433 12 15 10.433 15 8.5H14C14 9.88071 12.8807 11 11.5 11V12ZM14.5 3H3.5V4H14.5V3ZM0 6.5V8H1V6.5H0ZM3.5 3C1.567 3 0 4.567 0 6.5H1C1 5.11929 2.11929 4 3.5 4V3Z" fill="black"/></svg>

<svg xmlns="http://www.w3.org/2000/svg" viewBox="0 0 15 15" fill="none"><path d="M14.5 3.5l.354.354a.5.5 0 000-.708L14.5 3.5zm-14 8l-.354-.354a.5.5 0 000 .708L.5 11.5zM11.146.854l3 3 .708-.708-3-3-.708.708zm3 2.292l-3 3 .708.708 3-3-.708-.708zm-10.292 11l-3-3-.708.708 3 3 .708-.708zm-3-2.292l3-3-.708-.708-3 3 .708.708zM.5 12h11v-1H.5v1zM15 8.5V7h-1v1.5h1zM11.5 12A3.5 3.5 0 0015 8.5h-1a2.5 2.5 0 01-2.5 2.5v1zm3-9h-11v1h11V3zM0 6.5V8h1V6.5H0zM3.5 3A3.5 3.5 0 000 6.5h1A2.5 2.5 0 013.5 4V3z" fill="currentColor"/></svg>
